Infinity-Icons/Infinity-Dark-Icons/apps/48/kalzium.svg

<?xml version="1.0" encoding="UTF-8" standalone="no"?>
<!-- Created with Sodipodi ("http://www.sodipodi.com/") -->

<svg
   version="1.0"
   x="0"
   y="0"
   width="48"
   height="48"
   id="svg559"
   sodipodi:docname="kalzium.svg"
   inkscape:version="1.2.1 (9c6d41e410, 2022-07-14)"
   xmlns:inkscape="http://www.inkscape.org/namespaces/inkscape"
   xmlns:sodipodi="http://sodipodi.sourceforge.net/DTD/sodipodi-0.dtd"
   xmlns:xlink="http://www.w3.org/1999/xlink"
   xmlns="http://www.w3.org/2000/svg"
   xmlns:svg="http://www.w3.org/2000/svg">
  <sodipodi:namedview
     id="namedview229"
     pagecolor="#ffffff"
     bordercolor="#666666"
     borderopacity="1.0"
     inkscape:showpageshadow="2"
     inkscape:pageopacity="0.0"
     inkscape:pagecheckerboard="0"
     inkscape:deskcolor="#d1d1d1"
     showgrid="false"
     inkscape:zoom="4.17193"
     inkscape:cx="44.104287"
     inkscape:cy="27.56518"
     inkscape:window-width="1920"
     inkscape:window-height="1009"
     inkscape:window-x="0"
     inkscape:window-y="0"
     inkscape:window-maximized="1"
     inkscape:current-layer="svg559" />
  <defs
     id="defs561">
    <linearGradient
       id="linearGradient576">
      <stop
         style="stop-color:#02000d;stop-opacity:0.6039;"
         offset="0"
         id="stop577" />
      <stop
         style="stop-color:#970000;stop-opacity:0;"
         offset="1"
         id="stop578" />
    </linearGradient>
    <linearGradient
       id="linearGradient570">
      <stop
         style="stop-color:#4c0000;stop-opacity:0.6039;"
         offset="0"
         id="stop571" />
      <stop
         style="stop-color:#970000;stop-opacity:0;"
         offset="1"
         id="stop572" />
    </linearGradient>
    <linearGradient
       x1="0.43846199"
       y1="0.96875"
       x2="0.42307699"
       y2="0.328125"
       id="linearGradient573"
       xlink:href="#linearGradient570" />
    <radialGradient
       cx="297.5"
       cy="445.79971"
       r="44.724602"
       fx="297.5"
       fy="445.79971"
       id="radialGradient574"
       xlink:href="#linearGradient570"
       gradientUnits="userSpaceOnUse" />
    <radialGradient
       cx="297.5"
       cy="445.79971"
       r="44.724602"
       fx="297.5"
       fy="445.79971"
       id="radialGradient579"
       xlink:href="#linearGradient576"
       gradientUnits="userSpaceOnUse" />
    <linearGradient
       gradientTransform="matrix(1.0499636,0,0,1.0499041,-452.98526,-525.93779)"
       gradientUnits="userSpaceOnUse"
       x2="426.69501"
       y2="499.92099"
       y1="547.67499"
       id="a-6"
       x1="389.32001">
      <stop
         stop-color="#18222a"
         style="stop-color:#1e2b35;stop-opacity:1"
         id="stop216" />
      <stop
         stop-color="#566069"
         offset="1"
         style="stop-color:#6d7983;stop-opacity:1"
         id="stop218" />
    </linearGradient>
    <radialGradient
       cx="297.5"
       cy="445.79971"
       r="44.724602"
       fx="297.5"
       fy="445.79971"
       id="radialGradient579-3"
       xlink:href="#linearGradient576"
       gradientUnits="userSpaceOnUse" />
    <radialGradient
       cx="297.5"
       cy="445.79971"
       r="44.724602"
       fx="297.5"
       fy="445.79971"
       id="radialGradient574-5"
       xlink:href="#linearGradient570"
       gradientUnits="userSpaceOnUse" />
  </defs>
  <rect
     width="41.99855"
     x="-44.999676"
     y="3.0039389"
     rx="20.999275"
     height="41.99617"
     transform="scale(-1,1)"
     style="display:inline;fill:url(#a-6);stroke-width:2.93982;stroke-opacity:0.55"
     id="rect223"
     ry="20.998085" />
  <path
     style="display:inline;opacity:0.3;fill:#000000;fill-opacity:1;stroke-width:2.93982;stroke-opacity:0.55"
     d="M 3.0126,23.477117 C 3.0084,23.652144 3,23.826172 3,24.002199 c 0,11.633028 9.365698,20.998099 20.999216,20.998099 11.63353,0 20.99937,-9.365071 20.99937,-20.998099 0,-0.176027 -0.008,-0.349055 -0.0126,-0.525082 -0.2773,11.388289 -9.53376,20.473116 -20.98676,20.473116 -11.457195,0 -20.709453,-9.084827 -20.986611,-20.473116"
     id="path225" />
  <path
     d="M 3.0126,24.523181 C 3.0084,24.348154 3,24.175126 3,23.998099 3,12.365171 12.365698,3 23.999216,3 c 11.63353,0 20.99937,9.365171 20.99937,20.998099 0,0.176027 -0.008,0.350055 -0.0126,0.525082 -0.2773,-11.388289 -9.53376,-20.473116 -20.98676,-20.473116 -11.457195,0 -20.709452,9.084827 -20.98661,20.473116"
     style="display:inline;opacity:0.3;fill:#ffffff;fill-opacity:1;stroke-width:2.93982;stroke-opacity:0.55"
     id="path229" />
  <g
     transform="matrix(0.20960135,0,0,0.20960135,-47.068361,-64.360146)"
     style="font-size:12px"
     id="g597-6">
    <g
       transform="translate(3.526687,-2.015259)"
       id="g583-2">
      <circle
         cx="297.5"
         cy="418.61221"
         transform="translate(72.49998,-36.25)"
         style="fill:#0000b3;fill-rule:evenodd;stroke-width:1"
         id="path564-9"
         r="30" />
      <circle
         cx="297.5"
         cy="418.61221"
         transform="matrix(0.441423,0.123349,-0.08410152,0.30097,280.1325,205.3008)"
         style="fill:#ffffff;fill-opacity:0.4567;fill-rule:evenodd;stroke-width:1"
         id="path565-1"
         r="30" />
      <circle
         cx="297.5"
         cy="418.61221"
         transform="translate(71.4733,-36.59851)"
         style="fill:url(#radialGradient579-3);fill-rule:evenodd;stroke-width:1"
         id="path575-2"
         r="30" />
    </g>
    <path
       d="m 350.8661,383.4841 -44.725,24.2687 c 0.5344,6.9706 4.371,11.5762 8.8529,15.2584 l 44.9275,-24.9518 c -0.6018,-6.7429 -2.6969,-10.956 -9.0554,-14.5753 z"
       style="fill:#040000;fill-rule:evenodd;stroke-width:1"
       id="path582-7" />
    <g
       id="g587-0">
      <circle
         cx="297.5"
         cy="418.61221"
         style="fill-rule:evenodd;stroke-width:1"
         id="path562-9"
         r="30" />
      <circle
         cx="297.5"
         cy="418.61221"
         transform="matrix(0.441423,0.123349,-0.08410151,0.30097,206.5758,241.2266)"
         style="fill:#ffffff;fill-opacity:0.4567;fill-rule:evenodd;stroke-width:1"
         id="path568-3"
         r="30" />
    </g>
    <path
       d="m 386.3464,448.6343 -1.7572,-50.8548 c -6.4764,-2.6328 -12.3102,-1.2549 -17.6056,1.1126 l 2.2782,51.3408 c 6.3027,2.4708 11.008,2.4762 17.0846,-1.5986 z"
       style="fill:#040000;fill-rule:evenodd;stroke-width:1"
       id="path596-6" />
    <g
       transform="translate(3.02288,2.015137)"
       id="g590-0">
      <circle
         cx="297.5"
         cy="418.61221"
         transform="translate(74.99999,42.49994)"
         style="fill:#ab0000;fill-rule:evenodd;stroke-width:1"
         id="path563-6"
         r="30" />
      <circle
         cx="297.5"
         cy="418.61221"
         transform="matrix(0.441423,0.123349,-0.08410151,0.30097,280.1325,284.0507)"
         style="fill:#ffffff;fill-opacity:0.4567;fill-rule:evenodd;stroke-width:1"
         id="path566-2"
         r="30" />
      <circle
         cx="297.5"
         cy="418.61221"
         transform="matrix(0.441423,0.123349,-0.08410151,0.30097,280.1325,284.0507)"
         style="fill:#ffffff;fill-opacity:0.4567;fill-rule:evenodd;stroke-width:1"
         id="path567-6"
         r="30" />
      <circle
         cx="297.5"
         cy="418.61221"
         transform="translate(74.99999,42.49994)"
         style="fill:url(#radialGradient574-5);fill-rule:evenodd;stroke-width:1"
         id="path569-1"
         r="30" />
    </g>
    <path
       d="m 356.3334,448.0147 -44.9279,-23.8911 c -5.5168,4.2941 -7.2385,10.0358 -7.8341,15.8057 l 45.6092,23.6828 c 5.2897,-4.2246 7.6457,-8.2976 7.1528,-15.5974 z"
       style="fill:#040000;fill-rule:evenodd;stroke-width:1"
       id="path595-8" />
  </g>
</svg>

<?xml version="1.0" encoding="UTF-8" standalone="no"?>
<!DOCTYPE svg PUBLIC "-//W3C//DTD SVG 1.0//EN"
"http://www.w3.org/TR/2001/REC-SVG-20010904/DTD/svg10.dtd">
<!-- Created with Sodipodi ("http://www.sodipodi.com/") -->
<svg
   xmlns="http://www.w3.org/2000/svg"
   xmlns:xlink="http://www.w3.org/1999/xlink"
   version="1.0"
   x="0"
   y="0"
   width="160"
   height="160"
   id="svg559">
  <defs
     id="defs561">
    <linearGradient
       id="linearGradient576">
      <stop
         style="stop-color:#02000d;stop-opacity:0.6039;"
         offset="0"
         id="stop577" />
      <stop
         style="stop-color:#970000;stop-opacity:0;"
         offset="1"
         id="stop578" />
    </linearGradient>
    <linearGradient
       id="linearGradient570">
      <stop
         style="stop-color:#4c0000;stop-opacity:0.6039;"
         offset="0"
         id="stop571" />
      <stop
         style="stop-color:#970000;stop-opacity:0;"
         offset="1"
         id="stop572" />
    </linearGradient>
    <linearGradient
       x1="0.438462"
       y1="0.968750"
       x2="0.423077"
       y2="0.328125"
       id="linearGradient573"
       xlink:href="#linearGradient570" />
    <radialGradient
       cx="0.500000"
       cy="0.953125"
       r="0.745410"
       fx="0.500000"
       fy="0.953125"
       id="radialGradient574"
       xlink:href="#linearGradient570" />
    <radialGradient
       cx="0.500000"
       cy="0.953125"
       r="0.745410"
       fx="0.500000"
       fy="0.953125"
       id="radialGradient579"
       xlink:href="#linearGradient576" />
  </defs>
  <g
     transform="matrix(1.095346,0,0,1.095346,-287.5354,-381.0181)"
     style="font-size:12.000;"
     id="g597">
    <g
       transform="translate(3.526687,-2.015259)"
       id="g583">
      <ellipse
         cx="297.5000"
         cy="418.6122"
         rx="30.00000"
         ry="30.00000"
         transform="translate(72.49998,-36.25000)"
         style="fill:#0000b3;fill-rule:evenodd;stroke-width:1.000000;"
         id="path564" />
      <ellipse
         cx="297.5000"
         cy="418.6122"
         rx="30.00000"
         ry="30.00000"
         transform="matrix(0.441423,0.123349,-8.410152e-2,0.300970,280.1325,205.3008)"
         style="fill:#ffffff;fill-opacity:0.456700;fill-rule:evenodd;stroke-width:1.000000;"
         id="path565" />
      <ellipse
         cx="297.5000"
         cy="418.6122"
         rx="30.00000"
         ry="30.00000"
         transform="translate(71.47330,-36.59851)"
         style="fill:url(#radialGradient579);fill-rule:evenodd;stroke-width:1.000000;"
         id="path575" />
    </g>
    <path
       d="M 350.8661 383.4841 L 306.1411 407.7528 C 306.6755 414.7234 310.5121 419.3290 314.9940 423.0112 L 359.9215 398.0594 C 359.3197 391.3165 357.2246 387.1034 350.8661 383.4841 z "
       style="fill:#040000;fill-rule:evenodd;stroke-width:1.000000;"
       id="path582" />
    <g
       id="g587">
      <ellipse
         cx="297.5000"
         cy="418.6122"
         rx="30.00000"
         ry="30.00000"
         style="fill-rule:evenodd;stroke-width:1.000000;"
         id="path562" />
      <ellipse
         cx="297.5000"
         cy="418.6122"
         rx="30.00000"
         ry="30.00000"
         transform="matrix(0.441423,0.123349,-8.410151e-2,0.300970,206.5758,241.2266)"
         style="fill:#ffffff;fill-opacity:0.456700;fill-rule:evenodd;stroke-width:1.000000;"
         id="path568" />
    </g>
    <path
       d="M 386.3464 448.6343 L 384.5892 397.7795 C 378.1128 395.1467 372.2790 396.5246 366.9836 398.8921 L 369.2618 450.2329 C 375.5645 452.7037 380.2698 452.7091 386.3464 448.6343 z "
       style="fill:#040000;fill-rule:evenodd;stroke-width:1.000000;"
       id="path596" />
    <g
       transform="translate(3.022880,2.015137)"
       id="g590">
      <ellipse
         cx="297.5000"
         cy="418.6122"
         rx="30.00000"
         ry="30.00000"
         transform="translate(74.99999,42.49994)"
         style="fill:#ab0000;fill-rule:evenodd;stroke-width:1.000000;"
         id="path563" />
      <ellipse
         cx="297.5000"
         cy="418.6122"
         rx="30.00000"
         ry="30.00000"
         transform="matrix(0.441423,0.123349,-8.410151e-2,0.300970,280.1325,284.0507)"
         style="fill:#ffffff;fill-opacity:0.456700;fill-rule:evenodd;stroke-width:1.000000;"
         id="path566" />
      <ellipse
         cx="297.5000"
         cy="418.6122"
         rx="30.00000"
         ry="30.00000"
         transform="matrix(0.441423,0.123349,-8.410151e-2,0.300970,280.1325,284.0507)"
         style="fill:#ffffff;fill-opacity:0.456700;fill-rule:evenodd;stroke-width:1.000000;"
         id="path567" />
      <ellipse
         cx="297.5000"
         cy="418.6122"
         rx="30.00000"
         ry="30.00000"
         transform="translate(74.99999,42.49994)"
         style="fill:url(#radialGradient574);fill-rule:evenodd;stroke-width:1.000000;"
         id="path569" />
    </g>
    <path
       d="M 356.3334 448.0147 L 311.4055 424.1236 C 305.8887 428.4177 304.1670 434.1594 303.5714 439.9293 L 349.1806 463.6121 C 354.4703 459.3875 356.8263 455.3145 356.3334 448.0147 z "
       style="fill:#040000;fill-rule:evenodd;stroke-width:1.000000;"
       id="path595" />
  </g>
</svg>
